X: 04089
T: THANK YOU!
C: Bob McQuillen 17 Mar 80
B: Bob's Note Book 04 #89
%R: jig
Z: 2020 John Chambers <jc:trillian.mit.edu>
M: 6/8
L: 1/8
K: D
A, \
| DFD EFA | fed B2d | AFA Bcd | eEE GFE |\
| DFD EFA | fed BdB | AdB AFE | FDD D2 :|
|: b \
| afd dBA | Bcd ecA | a2f dcd | efd cBA |\
| GBG FAd | dcd eAb | afd dgf | e3 d2 :|
%%begintext align
%% I'm sure you can hear me say
%% (This tune is for Applejack
%% and Interested Others!)
%%endtext

%%sep 1 1 500

%%sep 1 1 500

